X:1
T:William Billings
T:Hartford
%%score [ 1 2 3 4 ]
L:1/8
M:2/4
K:G
V:1 treble nm="Soprano" snm="S"
V:2 alto nm="Alto" snm="A"
V:3 treble-8 nm="Tenor" snm="T"
V:4 bass nm="Bass" snm="B"
V:1
 B2 A2 | B2 d2 | d2 d2 | d2 e2 | d2 (dc) | B2 A2 | A4 | G2 B2 | d2 d2 | z4 | z4 | A2 (Bd) | %12
w: ||||||||||||
 (cB) A2 | B4 | z2 z2 | (GA) (Bc) | d2 d2 | (de) (dc) | B4 | z4 | z4 | z4 | z4 | G2 B2 | d2 d2 | %25
w: |||Oh * thy *|beau- ties|how * Di *|vine|||||||
 z4 | z4 | A2 (Bc) | d2 d2 | [Bd]4 | G2 B2 | d2 d2 | z4 | z4 | A2 (Bc) | d2 d2 | [Bd]4 |] %37
w: ||||||||||||
V:2
 D2 D2 | D2 D2 | z4 | z4 | G2 F2 | (GF) E2 | F4 | D2 D2 | G2 F2 | E2 E2 | E2 G2 | D2 (GF) | E2 D2 | %13
 D4 | z4 | z4 | z4 | z4 | z4 | D2 (DG) | F2 E2 | D2 D2 | D4 | D2 D2 | G2 F2 | E2 E2 | E2 G2 | %27
 F2 (GA) | G2 F2 | G4 | D2 D2 | G2 F2 | E2 E2 | E2 G2 | F2 (GA) | G2 F2 | G4 |] %37
V:3
 G2 D2 | G2 B2 | A2 F2 | A2 c2 | B2 A2 | B2 c2 | d4 | B2 G2 | B2 d2 | c2 A2 | c2 e2 | f2 d2 | %12
w: Glo- rious|Je sus|Glor- ious|Je- sus|thy dear|name to|praise|this shall|please us|this shall|please us|great- ly|
 e2 f2 | g4 | z4 | z4 | z4 | z4 | z4 | B2 (AG) | d2 c2 | B2 A2 | G4 | B2 G2 | B2 d2 | c2 A2 | %26
w: all our|Day||||||how they *|in the|Gos- pel|shine|ho- ly|Sa- vior|live for|
 c2 e2 | d2 (dc) | B2 A2 | G4 | B2 G2 | B2 d2 | c2 A2 | c2 e2 | d2 (dc) | B2 A2 | G4 |] %37
w: ev- er|All our *|songs be|thine|ho- ly|Sa- vior|life for|e- ver|All our *|songs be|thine|
V:4
 z4 | z4 | D,2 D,2 | D,2 C,2 | [G,,G,]2 D,2 | [G,,G,]2 [A,,A,]2 | D,4 | [G,,G,]2 [G,,G,]2 | %8
 [G,,G,]2 [B,,B,]2 | z4 | z4 | D,2 B,,2 | C,2 D,2 | [G,,G,]4 | z4 | z4 | z4 | z4 | z4 | %19
 G,2 (F,E,) | D,2 (E,F,) | G,2 D,2 | G,,4 | [G,,G,]2 [G,,G,]2 | [G,,G,]2 [B,,B,]2 | z4 | z4 | %27
 D,2 ([G,,G,][F,,F,]) | [G,,G,]2 D,2 | G,,4 | [G,,G,]2 [G,,G,]2 | [G,,G,]2 [B,,B,]2 | z4 | z4 | %34
 D,2 ([G,,G,][F,,F,]) | [G,,G,]2 D,2 | G,,4 |] %37

